local/share/icons/dracula-icons-main/scalable/apps/clion.svg

<?xml version="1.0" encoding="UTF-8"?>
<svg xmlns="http://www.w3.org/2000/svg" xmlns:xlink="http://www.w3.org/1999/xlink" width="64" height="64" viewBox="0 0 64 64">
<path fill-rule="nonzero" fill="rgb(24.313725%, 79.215686%, 78.039216%)" fill-opacity="1" d="M 15.609375 8.464844 C 15.609375 12.410156 12.410156 15.609375 8.464844 15.609375 C 4.519531 15.609375 1.324219 12.410156 1.324219 8.464844 C 1.324219 4.519531 4.519531 1.324219 8.464844 1.324219 C 12.410156 1.324219 15.609375 4.519531 15.609375 8.464844 Z M 15.609375 8.464844 "/>
<path fill-rule="nonzero" fill="rgb(18.823529%, 18.823529%, 18.823529%)" fill-opacity="1" d="M 5.820312 4.496094 L 11.113281 4.496094 C 11.84375 4.496094 12.433594 5.089844 12.433594 5.820312 L 12.433594 11.113281 C 12.433594 11.84375 11.84375 12.433594 11.113281 12.433594 L 5.820312 12.433594 C 5.089844 12.433594 4.496094 11.84375 4.496094 11.113281 L 4.496094 5.820312 C 4.496094 5.089844 5.089844 4.496094 5.820312 4.496094 Z M 5.820312 4.496094 "/>
<path fill-rule="nonzero" fill="rgb(97.647059%, 97.647059%, 97.647059%)" fill-opacity="1" d="M 6.914062 5.359375 C 5.886719 5.359375 5.359375 6.097656 5.359375 7.050781 C 5.359375 8.003906 5.921875 8.796875 6.914062 8.777344 C 7.550781 8.777344 7.933594 8.527344 8.269531 8.152344 L 7.84375 7.71875 C 7.582031 7.960938 7.289062 8.15625 6.914062 8.15625 C 6.335938 8.15625 5.984375 7.617188 5.980469 7.039062 C 5.984375 6.464844 6.355469 5.980469 6.914062 5.980469 C 7.25 5.980469 7.535156 6.105469 7.796875 6.347656 L 8.203125 5.863281 C 7.886719 5.546875 7.550781 5.359375 6.914062 5.359375 Z M 8.777344 5.359375 L 8.777344 8.777344 L 10.953125 8.777344 L 10.953125 8.15625 L 9.398438 8.15625 L 9.398438 5.359375 Z M 8.777344 5.359375 "/>
<path fill-rule="nonzero" fill="rgb(97.647059%, 97.647059%, 97.647059%)" fill-opacity="1" d="M 5.050781 10.953125 L 8.15625 10.953125 L 8.15625 11.574219 L 5.050781 11.574219 Z M 5.050781 10.953125 "/>
</svg>

<svg width="64" height="64" version="1.1" viewBox="0 0 16.933 16.933" xmlns="http://www.w3.org/2000/svg">
 <path d="m15.61 8.4665a7.1436 7.1436 0 0 1-7.1436 7.1436 7.1436 7.1436 0 0 1-7.1436-7.1436 7.1436 7.1436 0 0 1 7.1436-7.1436 7.1436 7.1436 0 0 1 7.1436 7.1436z" fill="#3ecac7" stroke-width=".26458"/>
 <rect x="4.4978" y="4.4978" width="7.9373" height="7.9373" rx="1.3229" ry="1.3229" fill="#303030" style="paint-order:markers stroke fill"/>
 <path d="m6.9135 5.36c-1.0281 0-1.553 0.73671-1.553 1.6901 0 0.95334 0.56223 1.7451 1.553 1.7265 0.63556 0 1.0212-0.24975 1.3576-0.62361l-0.42585-0.43374c-0.2617 0.24301-0.55791 0.43616-0.93178 0.43616-0.57621 0-0.92722-0.53856-0.93117-1.1144 0.00394-0.57541 0.37338-1.0598 0.93117-1.0598 0.33647 0 0.62154 0.12521 0.88325 0.36822l0.40583-0.48651c-0.31778-0.31778-0.65351-0.50289-1.2891-0.50289zm1.8636 6.212e-4v3.4165h2.1741v-0.62118h-1.553v-2.7953z" fill="#f9f9f9" stroke-width=".26458"/>
 <path d="m5.05 10.952h3.1059v0.62118h-3.1059z" fill="#f9f9f9" stroke-width=".26458"/>
</svg>
